X:1
T:Rays of Hope
T:Rays of Hope
T:Daniel O. Teasley, pub.1911
T:Daniel S. Warner
T:PUBLIC DOMAIN
T:PUBLIC DOMAIN
C:Daniel O. Teasley, pub.1911
Z:Daniel S. Warner
Z:PUBLIC DOMAIN
%%score ( 1 2 ) ( 3 4 )
L:1/8
Q:1/4=80
M:3/4
K:F
V:1 treble nm="Treble"
V:2 treble 
V:3 bass nm="Bass"
V:4 bass 
V:1
 A A B | A3 G F D | C4 [A,C]2 | [B,D]3 [DF] [FB] [FB] | [FA]3 | A A B | A3 G F D | C4 [A,C]2 | %8
w: 1.~There are some|rays of hope di-|vine, To|cheer the dark- est|heart;|A- round the|cross they ev- er|shine, Where|
w: 2.~De- spon- dent|soul, can you not|see Hope|gleam- ing from a-|bove?|Oh, look once|more to Cal- va-|ry, And|
w: 3.~Though shame and|guilt op- press thy|soul, Thy|heart as ad- a-|mant,|Yet Je- sus|will thy name en-|roll, If|
w: 4.~Thy life of|sin now weighs thee|down, And|death and hell are|near;|But heav- en|wills thee yet a|crown, And|
 [B,D]3 [DB] [CA] [CG] | [CF]4 ||[M:4/4]"^Refrain" (3A AA | A6 (3c cc | c6 (3[Fc] [Fc][Fc] | %13
w: life a- new may|start.|Heav- en is|free, heav- en is|free, Sin- ner, be-|
w: know that God is|love.||||
w: thou wilt but re-|pent.||||
w: an- gels want thee|there.||||
 [Fc]2 [FA]2 [CF]3/2 [CE]/ [CF]3/2 [FA]/ | [EG]6 | (3A AA | A6 (3c cc | B6 (3[FB] [FB][FB] | %18
w: lieve, in heav- en you may|shine;|Come and be|free, come and be|free; Won- der- ful|
w: |||||
w: |||||
w: |||||
 [FA]2 [CG]2 [CF] [CE] [FA]3/2 [CG]/ | [CF]4 [CF] |] %20
w: love, that heav- en may be|thine. *|
w: ||
w: ||
w: ||
V:2
 z z2 | x6 | z4 z2 | x6 | z3 | z z2 | x6 | z4 z2 | x6 | x4 ||[M:4/4] z2 | (3F F F F F F2 z2 | %12
 (3F F F E G F2 z2 | x8 | z6 | z2 | (3F F F F F F2 z2 | (3F F F F F F2 z2 | x8 | x5 |] %20
V:3
 C C D | C3 B, A, B, | A,4 F,2 | [B,,F,]3 [B,,B,] [B,,D] [B,,_D] | [F,C]3 | C C D | C3 B, A, B, | %7
w: |||||||
 A,4 F,2 | [B,,F,]3 [B,,F,] [C,F,] [C,B,] | [F,A,]4 ||[M:4/4] z2 | %11
w: ||||
 (3[F,C] [F,C] [F,C] [F,C] [F,C] [F,C]2 z2 | %12
w: Heav- en is free for thee,|
 (3[F,A,] [F,A,] [F,A,] [C,G,] [C,B,] [F,A,]2 (3[F,A,] [F,A,] [F,A,] | %13
w: heav- en is free for thee, * * *|
 [F,A,]2 [F,C]2 [F,A,]3/2 [F,^G,]/ [F,A,]3/2 [F,C]/ | [C,C]6 | z2 | %16
w: |||
 (3[F,C] [F,C] [F,C] [F,C] [F,C] [F,C]2 z2 | %17
w: Come and be free, be free,|
 (3[B,,D] [B,,D] [B,,D] [B,,D] [B,,D] [B,,D]2 (3[B,,D] [B,,D] [B,,D] | %18
w: come and be free, be free, * * *|
 [C,C]2 [C,B,]2 [C,A,] [C,G,] [C,C]3/2 [C,B,]/ | [F,,F,A,]4 [F,,F,A,] |] %20
w: ||
V:4
 z z2 | x6 | z4 F,2 | x6 | z3 | z z2 | x6 | z4 F,2 | x6 | x4 ||[M:4/4] x2 | x8 | x8 | x8 | x6 | %15
 x2 | x8 | x8 | x8 | x5 |] %20

